X: 39250
T: Taibhse Chonaill
R: jig
M: 6/8
K: Dmajor
DEF D2A,|DED DdB|A2F d2F|E2D B,2A,|
DEF D2A,|DED DdB|A2F E2F|1 (D3 D2)A,:|2 (D3 D2) d||
|:d2e f2d|B2A F2A|d2e f2d|(B3 B2) d|
cec A2d|cec A2E|F2D A2F|1 (D3 D2) d:|2 (D3 D2) A,||

